assets/img/photo/dynamic.svg

<svg width="220" height="220" viewBox="0 0 220 220" fill="none" xmlns="http://www.w3.org/2000/svg">
<path d="M220 110C220 170.751 170.751 220 110 220C49.2487 220 0 170.751 0 110C0 49.2486 49.2487 0 110 0C170.751 0 220 49.2486 220 110ZM43.3125 110C43.3125 146.83 73.1695 176.687 110 176.687C146.83 176.687 176.687 146.83 176.687 110C176.687 73.1695 146.83 43.3125 110 43.3125C73.1695 43.3125 43.3125 73.1695 43.3125 110Z" fill="#D4E1BD"/>
<path d="M190.991 35.5655C206.71 52.669 216.611 74.3098 219.274 97.3863L176.248 102.353C174.633 88.3628 168.63 75.2431 159.101 64.8741L190.991 35.5655Z" fill="#552C13"/>
<path d="M191.307 35.9115C174.865 17.8672 152.887 5.80502 128.836 1.62483C104.784 -2.55536 80.0258 1.3839 58.4593 12.8222C36.8929 24.2605 19.7441 42.5479 9.71386 64.8041C-0.316368 87.0604 -2.65809 112.021 3.0575 135.754C8.77309 159.488 22.2212 180.646 41.2839 195.896C60.3465 211.146 83.9405 219.621 108.35 219.988C132.759 220.354 156.597 212.59 176.108 197.919C195.62 183.248 209.697 162.503 216.122 138.951L174.336 127.552C170.441 141.83 161.907 154.406 150.078 163.301C138.249 172.195 123.798 176.902 109 176.68C94.2014 176.458 79.8976 171.32 68.3409 162.074C56.7842 152.829 48.6313 140.002 45.1662 125.614C41.7011 111.225 43.1208 96.0929 49.2016 82.6001C55.2824 69.1072 65.6789 58.0205 78.7535 51.086C91.8282 44.1516 106.838 41.7634 121.419 44.2976C136.001 46.8319 149.324 54.1445 159.293 65.0839L191.307 35.9115Z" fill="#548235"/>
<path d="M97.3502 100H84.2462V97.116L90.9382 90.228C92.4316 88.6413 93.1782 87.3347 93.1782 86.308C93.1782 85.5427 92.9356 84.9267 92.4502 84.46C91.9836 83.9933 91.3769 83.76 90.6302 83.76C89.1369 83.76 88.0449 84.5253 87.3542 86.056L84.1062 84.152C84.7036 82.8267 85.5716 81.8093 86.7102 81.1C87.8676 80.372 89.1556 80.008 90.5742 80.008C92.3476 80.008 93.8689 80.568 95.1382 81.688C96.4076 82.7893 97.0422 84.2827 97.0422 86.168C97.0422 88.2027 95.9689 90.2933 93.8222 92.44L89.9862 96.276H97.3502V100ZM103.834 87.54H105.85C107.754 87.54 109.34 88.1093 110.61 89.248C111.898 90.368 112.542 91.936 112.542 93.952C112.542 95.968 111.86 97.5453 110.498 98.684C109.172 99.8227 107.52 100.392 105.542 100.392C103.936 100.392 102.527 100.037 101.314 99.328C100.119 98.6 99.2511 97.5547 98.7098 96.192L102.014 94.26C102.48 95.828 103.656 96.612 105.542 96.612C106.531 96.612 107.296 96.3787 107.838 95.912C108.398 95.4267 108.678 94.7733 108.678 93.952C108.678 93.1493 108.407 92.5053 107.866 92.02C107.324 91.5347 106.587 91.292 105.654 91.292H99.7178L100.502 80.4H111.618V84.012H104.086L103.834 87.54ZM115.295 96.136H119.215L117.115 103.92H114.175L115.295 96.136ZM132.86 89.808C134.67 90.8907 135.576 92.468 135.576 94.54C135.576 96.3507 134.941 97.7787 133.672 98.824C132.421 99.8693 130.713 100.392 128.548 100.392C126.364 100.392 124.646 99.8693 123.396 98.824C122.145 97.7787 121.52 96.3507 121.52 94.54C121.52 92.4867 122.416 90.9093 124.208 89.808C122.845 88.8373 122.164 87.484 122.164 85.748C122.164 83.9373 122.77 82.528 123.984 81.52C125.216 80.512 126.737 80.008 128.548 80.008C130.377 80.008 131.889 80.512 133.084 81.52C134.297 82.528 134.904 83.9373 134.904 85.748C134.904 87.484 134.222 88.8373 132.86 89.808ZM131.068 85.944C131.068 85.2347 130.834 84.6747 130.368 84.264C129.901 83.8533 129.294 83.648 128.548 83.648C127.801 83.648 127.194 83.8533 126.728 84.264C126.261 84.6747 126.028 85.2347 126.028 85.944C126.028 86.672 126.261 87.2413 126.728 87.652C127.194 88.0627 127.801 88.268 128.548 88.268C129.294 88.268 129.901 88.0627 130.368 87.652C130.834 87.2413 131.068 86.672 131.068 85.944ZM130.872 96.024C131.45 95.5387 131.74 94.876 131.74 94.036C131.74 93.196 131.45 92.5427 130.872 92.076C130.293 91.5907 129.518 91.348 128.548 91.348C127.577 91.348 126.802 91.5907 126.224 92.076C125.645 92.5427 125.356 93.196 125.356 94.036C125.356 94.876 125.645 95.5387 126.224 96.024C126.802 96.5093 127.577 96.752 128.548 96.752C129.518 96.752 130.293 96.5093 130.872 96.024Z" fill="#3A3737"/>
<path d="M80.549 117H81.665V123H80.645V118.644L78.737 121.716H78.605L76.697 118.644V123H75.665V117H76.781L78.665 120.036L80.549 117ZM83.8108 117H88.2628V123H87.2188V118.008H84.8548V120.456C84.8548 121.416 84.6628 122.1 84.2788 122.508C83.8948 122.908 83.3308 123.072 82.5868 123V122.016C83.0028 122.072 83.3108 121.98 83.5108 121.74C83.7108 121.492 83.8108 121.056 83.8108 120.432V117ZM93.9967 119.496V117H95.0407V123H93.9967V120.492H90.8887V123H89.8447V117H90.8887V119.496H93.9967ZM99.6299 117H104.826V123H103.782V117.996H100.674V123H99.6299V117ZM111.479 122.244C110.871 122.852 110.123 123.156 109.235 123.156C108.347 123.156 107.599 122.852 106.991 122.244C106.383 121.636 106.079 120.888 106.079 120C106.079 119.112 106.383 118.364 106.991 117.756C107.599 117.148 108.347 116.844 109.235 116.844C110.123 116.844 110.871 117.148 111.479 117.756C112.095 118.372 112.403 119.12 112.403 120C112.403 120.88 112.095 121.628 111.479 122.244ZM109.235 122.136C109.835 122.136 110.339 121.932 110.747 121.524C111.155 121.116 111.359 120.608 111.359 120C111.359 119.392 111.155 118.884 110.747 118.476C110.339 118.068 109.835 117.864 109.235 117.864C108.643 117.864 108.143 118.068 107.735 118.476C107.327 118.884 107.123 119.392 107.123 120C107.123 120.608 107.327 121.116 107.735 121.524C108.143 121.932 108.643 122.136 109.235 122.136ZM119.394 120.48H114.366C114.47 121.008 114.714 121.424 115.098 121.728C115.482 122.024 115.962 122.172 116.538 122.172C117.33 122.172 117.906 121.88 118.266 121.296L119.154 121.8C118.562 122.704 117.682 123.156 116.514 123.156C115.57 123.156 114.794 122.86 114.186 122.268C113.594 121.66 113.298 120.904 113.298 120C113.298 119.088 113.59 118.336 114.174 117.744C114.758 117.144 115.514 116.844 116.442 116.844C117.322 116.844 118.038 117.156 118.59 117.78C119.15 118.388 119.43 119.132 119.43 120.012C119.43 120.164 119.418 120.32 119.394 120.48ZM116.442 117.828C115.89 117.828 115.426 117.984 115.05 118.296C114.682 118.608 114.454 119.032 114.366 119.568H118.374C118.286 119.016 118.066 118.588 117.714 118.284C117.362 117.98 116.938 117.828 116.442 117.828ZM123.741 119.928C124.405 120.208 124.737 120.684 124.737 121.356C124.737 121.876 124.533 122.308 124.125 122.652C123.717 122.988 123.153 123.156 122.433 123.156C121.233 123.156 120.429 122.676 120.021 121.716L120.897 121.2C121.121 121.856 121.637 122.184 122.445 122.184C122.837 122.184 123.145 122.1 123.369 121.932C123.593 121.764 123.705 121.54 123.705 121.26C123.705 121.02 123.613 120.824 123.429 120.672C123.253 120.52 123.013 120.444 122.709 120.444H121.833V119.496H122.481C122.785 119.496 123.021 119.424 123.189 119.28C123.357 119.128 123.441 118.924 123.441 118.668C123.441 118.404 123.341 118.196 123.141 118.044C122.941 117.884 122.673 117.804 122.337 117.804C121.665 117.804 121.209 118.088 120.969 118.656L120.117 118.164C120.541 117.284 121.281 116.844 122.337 116.844C122.977 116.844 123.489 117.012 123.873 117.348C124.265 117.676 124.461 118.088 124.461 118.584C124.461 119.192 124.221 119.64 123.741 119.928ZM130.934 117V122.004H131.762V124.608H130.73V123H126.23V124.608H125.198V122.004H125.93C126.314 121.476 126.506 120.736 126.506 119.784V117H130.934ZM127.118 122.004H129.902V117.972H127.538V119.784C127.538 120.664 127.398 121.404 127.118 122.004ZM137.717 122.244C137.109 122.852 136.361 123.156 135.473 123.156C134.585 123.156 133.837 122.852 133.229 122.244C132.621 121.636 132.317 120.888 132.317 120C132.317 119.112 132.621 118.364 133.229 117.756C133.837 117.148 134.585 116.844 135.473 116.844C136.361 116.844 137.109 117.148 137.717 117.756C138.333 118.372 138.641 119.12 138.641 120C138.641 120.88 138.333 121.628 137.717 122.244ZM135.473 122.136C136.073 122.136 136.577 121.932 136.985 121.524C137.393 121.116 137.597 120.608 137.597 120C137.597 119.392 137.393 118.884 136.985 118.476C136.577 118.068 136.073 117.864 135.473 117.864C134.881 117.864 134.381 118.068 133.973 118.476C133.565 118.884 133.361 119.392 133.361 120C133.361 120.608 133.565 121.116 133.973 121.524C134.381 121.932 134.881 122.136 135.473 122.136ZM141.984 119.904L144.948 123H143.652L140.916 120.156V123H139.872V117H140.916V119.652L143.508 117H144.852L141.984 119.904ZM80.151 136.496V134H81.195V140H80.151V137.492H77.043V140H75.999V134H77.043V136.496H80.151ZM87.7522 135.032V134H88.7962V140H87.7522V138.968C87.2402 139.76 86.4842 140.156 85.4842 140.156C84.6362 140.156 83.9202 139.852 83.3362 139.244C82.7442 138.628 82.4482 137.88 82.4482 137C82.4482 136.128 82.7442 135.384 83.3362 134.768C83.9282 134.152 84.6442 133.844 85.4842 133.844C86.4842 133.844 87.2402 134.24 87.7522 135.032ZM85.6162 139.148C86.2242 139.148 86.7322 138.944 87.1402 138.536C87.5482 138.112 87.7522 137.6 87.7522 137C87.7522 136.392 87.5482 135.884 87.1402 135.476C86.7322 135.06 86.2242 134.852 85.6162 134.852C85.0162 134.852 84.5122 135.06 84.1042 135.476C83.6962 135.884 83.4922 136.392 83.4922 137C83.4922 137.6 83.6962 138.112 84.1042 138.536C84.5122 138.944 85.0162 139.148 85.6162 139.148ZM98.4419 140H93.0179V139.088L95.9819 136.064C96.7739 135.272 97.1699 134.592 97.1699 134.024C97.1699 133.56 97.0259 133.196 96.7379 132.932C96.4579 132.66 96.1059 132.524 95.6819 132.524C94.8899 132.524 94.3139 132.9 93.9539 133.652L93.0179 133.1C93.2739 132.564 93.6339 132.156 94.0979 131.876C94.5619 131.588 95.0859 131.444 95.6699 131.444C96.3819 131.444 96.9939 131.676 97.5059 132.14C98.0259 132.612 98.2859 133.236 98.2859 134.012C98.2859 134.86 97.7859 135.784 96.7859 136.784L94.6379 138.92H98.4419V140ZM104.965 138.968C104.405 139.76 103.609 140.156 102.577 140.156C101.545 140.156 100.749 139.76 100.189 138.968C99.6209 138.168 99.3369 137.112 99.3369 135.8C99.3369 134.488 99.6209 133.432 100.189 132.632C100.749 131.84 101.545 131.444 102.577 131.444C103.609 131.444 104.405 131.84 104.965 132.632C105.533 133.432 105.817 134.488 105.817 135.8C105.817 137.112 105.533 138.168 104.965 138.968ZM100.453 135.8C100.453 136.84 100.637 137.644 101.005 138.212C101.373 138.78 101.897 139.064 102.577 139.064C103.257 139.064 103.781 138.78 104.149 138.212C104.525 137.644 104.713 136.84 104.713 135.8C104.713 134.76 104.525 133.956 104.149 133.388C103.781 132.812 103.257 132.524 102.577 132.524C101.897 132.524 101.373 132.808 101.005 133.376C100.637 133.944 100.453 134.752 100.453 135.8ZM112.059 140H106.635V139.088L109.599 136.064C110.391 135.272 110.787 134.592 110.787 134.024C110.787 133.56 110.643 133.196 110.355 132.932C110.075 132.66 109.723 132.524 109.299 132.524C108.507 132.524 107.931 132.9 107.571 133.652L106.635 133.1C106.891 132.564 107.251 132.156 107.715 131.876C108.179 131.588 108.703 131.444 109.287 131.444C109.999 131.444 110.611 131.676 111.123 132.14C111.643 132.612 111.903 133.236 111.903 134.012C111.903 134.86 111.403 135.784 110.403 136.784L108.255 138.92H112.059V140ZM118.03 132.584L116.206 135.044C116.862 135.164 117.39 135.444 117.79 135.884C118.19 136.324 118.39 136.868 118.39 137.516C118.39 138.34 118.11 138.984 117.55 139.448C116.982 139.92 116.302 140.156 115.51 140.156C114.854 140.156 114.282 140.008 113.794 139.712C113.306 139.416 112.958 138.996 112.75 138.452L113.686 137.9C113.934 138.676 114.542 139.064 115.51 139.064C116.038 139.064 116.462 138.928 116.782 138.656C117.11 138.376 117.274 137.996 117.274 137.516C117.274 137.036 117.11 136.656 116.782 136.376C116.462 136.096 116.038 135.956 115.51 135.956H115.222L114.778 135.272L116.722 132.644H112.99V131.6H118.03V132.584ZM122.628 134H126.564V135.008H123.672V140H122.628V134ZM132.309 139.244C131.701 139.852 130.953 140.156 130.065 140.156C129.177 140.156 128.429 139.852 127.821 139.244C127.213 138.636 126.909 137.888 126.909 137C126.909 136.112 127.213 135.364 127.821 134.756C128.429 134.148 129.177 133.844 130.065 133.844C130.953 133.844 131.701 134.148 132.309 134.756C132.925 135.372 133.233 136.12 133.233 137C133.233 137.88 132.925 138.628 132.309 139.244ZM130.065 139.136C130.665 139.136 131.169 138.932 131.577 138.524C131.985 138.116 132.189 137.608 132.189 137C132.189 136.392 131.985 135.884 131.577 135.476C131.169 135.068 130.665 134.864 130.065 134.864C129.473 134.864 128.973 135.068 128.565 135.476C128.157 135.884 127.953 136.392 127.953 137C127.953 137.608 128.157 138.116 128.565 138.524C128.973 138.932 129.473 139.136 130.065 139.136ZM139.39 134V139.004H140.217V141.608H139.186V140H134.686V141.608H133.654V139.004H134.386C134.77 138.476 134.962 137.736 134.962 136.784V134H139.39ZM135.574 139.004H138.358V134.972H135.994V136.784C135.994 137.664 135.854 138.404 135.574 139.004ZM143.022 132.74L144.114 132.68V133.448L143.022 133.4L143.658 134.276L142.974 134.684L142.434 133.7L141.894 134.684L141.222 134.276L141.846 133.4L140.766 133.448V132.68L141.846 132.74L141.222 131.852L141.894 131.444L142.434 132.428L142.974 131.444L143.658 131.852L143.022 132.74Z" fill="#3A3737"/>
</svg>

<svg xmlns="http://www.w3.org/2000/svg" width="220" height="220" fill="none"><path fill="#D4E1BD" d="M220 110c0 60.751-49.249 110-110 110S0 170.751 0 110 49.249 0 110 0s110 49.249 110 110Zm-176.688 0c0 36.83 29.858 66.687 66.688 66.687S176.687 146.83 176.687 110 146.83 43.312 110 43.312 43.312 73.17 43.312 110Z"/><path fill="#552C13" d="M190.991 35.566a109.994 109.994 0 0 1 28.283 61.82l-43.026 4.967a66.692 66.692 0 0 0-17.147-37.479l31.89-29.308Z"/><path fill="#548235" d="M191.307 35.911a110 110 0 1 0 24.815 103.04l-41.786-11.399a66.687 66.687 0 1 1-15.043-62.468l32.014-29.173Z"/><path fill="#3A3737" d="M97.35 100H84.246v-2.884l6.692-6.888c1.494-1.587 2.24-2.893 2.24-3.92 0-.765-.242-1.381-.728-1.848-.466-.467-1.073-.7-1.82-.7-1.493 0-2.585.765-3.276 2.296l-3.248-1.904c.598-1.325 1.466-2.343 2.604-3.052 1.158-.728 2.446-1.092 3.864-1.092 1.774 0 3.295.56 4.564 1.68 1.27 1.101 1.904 2.595 1.904 4.48 0 2.035-1.073 4.125-3.22 6.272l-3.836 3.836h7.364V100Zm6.484-12.46h2.016c1.904 0 3.49.57 4.76 1.708 1.288 1.12 1.932 2.688 1.932 4.704 0 2.016-.682 3.593-2.044 4.732-1.326 1.139-2.978 1.708-4.956 1.708-1.606 0-3.015-.355-4.228-1.064-1.195-.728-2.063-1.773-2.604-3.136l3.304-1.932c.466 1.568 1.642 2.352 3.528 2.352.989 0 1.754-.233 2.296-.7.56-.485.84-1.139.84-1.96 0-.803-.271-1.447-.812-1.932-.542-.485-1.279-.728-2.212-.728h-5.936l.784-10.892h11.116v3.612h-7.532l-.252 3.528Zm11.461 8.596h3.92l-2.1 7.784h-2.94l1.12-7.784Zm17.565-6.328c1.81 1.083 2.716 2.66 2.716 4.732 0 1.81-.635 3.239-1.904 4.284-1.251 1.045-2.959 1.568-5.124 1.568-2.184 0-3.902-.523-5.152-1.568-1.251-1.045-1.876-2.473-1.876-4.284 0-2.053.896-3.63 2.688-4.732-1.363-.97-2.044-2.324-2.044-4.06 0-1.81.606-3.22 1.82-4.228 1.232-1.008 2.753-1.512 4.564-1.512 1.829 0 3.341.504 4.536 1.512 1.213 1.008 1.82 2.417 1.82 4.228 0 1.736-.682 3.09-2.044 4.06Zm-1.792-3.864c0-.71-.234-1.27-.7-1.68-.467-.41-1.074-.616-1.82-.616-.747 0-1.354.205-1.82.616-.467.41-.7.97-.7 1.68 0 .728.233 1.297.7 1.708.466.41 1.073.616 1.82.616.746 0 1.353-.205 1.82-.616.466-.41.7-.98.7-1.708Zm-.196 10.08c.578-.485.868-1.148.868-1.988 0-.84-.29-1.493-.868-1.96-.579-.485-1.354-.728-2.324-.728-.971 0-1.746.243-2.324.728-.579.467-.868 1.12-.868 1.96 0 .84.289 1.503.868 1.988.578.485 1.353.728 2.324.728.97 0 1.745-.243 2.324-.728ZM80.549 117h1.116v6h-1.02v-4.356l-1.908 3.072h-.132l-1.908-3.072V123h-1.032v-6h1.116l1.884 3.036L80.549 117Zm3.262 0h4.452v6h-1.044v-4.992h-2.364v2.448c0 .96-.192 1.644-.576 2.052-.384.4-.948.564-1.692.492v-.984c.416.056.724-.036.924-.276.2-.248.3-.684.3-1.308V117Zm10.186 2.496V117h1.044v6h-1.044v-2.508h-3.108V123h-1.044v-6h1.044v2.496h3.108ZM99.63 117h5.196v6h-1.044v-5.004h-3.108V123H99.63v-6Zm11.849 5.244c-.608.608-1.356.912-2.244.912-.888 0-1.636-.304-2.244-.912-.608-.608-.912-1.356-.912-2.244 0-.888.304-1.636.912-2.244.608-.608 1.356-.912 2.244-.912.888 0 1.636.304 2.244.912.616.616.924 1.364.924 2.244 0 .88-.308 1.628-.924 2.244Zm-2.244-.108c.6 0 1.104-.204 1.512-.612.408-.408.612-.916.612-1.524s-.204-1.116-.612-1.524c-.408-.408-.912-.612-1.512-.612a2.04 2.04 0 0 0-1.5.612c-.408.408-.612.916-.612 1.524s.204 1.116.612 1.524a2.04 2.04 0 0 0 1.5.612Zm10.159-1.656h-5.028c.104.528.348.944.732 1.248.384.296.864.444 1.44.444.792 0 1.368-.292 1.728-.876l.888.504c-.592.904-1.472 1.356-2.64 1.356-.944 0-1.72-.296-2.328-.888-.592-.608-.888-1.364-.888-2.268 0-.912.292-1.664.876-2.256.584-.6 1.34-.9 2.268-.9.88 0 1.596.312 2.148.936.56.608.84 1.352.84 2.232 0 .152-.012.308-.036.468Zm-2.952-2.652c-.552 0-1.016.156-1.392.468-.368.312-.596.736-.684 1.272h4.008c-.088-.552-.308-.98-.66-1.284a1.88 1.88 0 0 0-1.272-.456Zm7.299 2.1c.664.28.996.756.996 1.428 0 .52-.204.952-.612 1.296-.408.336-.972.504-1.692.504-1.2 0-2.004-.48-2.412-1.44l.876-.516c.224.656.74.984 1.548.984.392 0 .7-.084.924-.252a.798.798 0 0 0 .336-.672.728.728 0 0 0-.276-.588c-.176-.152-.416-.228-.72-.228h-.876v-.948h.648c.304 0 .54-.072.708-.216.168-.152.252-.356.252-.612 0-.264-.1-.472-.3-.624-.2-.16-.468-.24-.804-.24-.672 0-1.128.284-1.368.852l-.852-.492c.424-.88 1.164-1.32 2.22-1.32.64 0 1.152.168 1.536.504.392.328.588.74.588 1.236 0 .608-.24 1.056-.72 1.344Zm7.193-2.928v5.004h.828v2.604h-1.032V123h-4.5v1.608h-1.032v-2.604h.732c.384-.528.576-1.268.576-2.22V117h4.428Zm-3.816 5.004h2.784v-4.032h-2.364v1.812c0 .88-.14 1.62-.42 2.22Zm10.599.24c-.608.608-1.356.912-2.244.912-.888 0-1.636-.304-2.244-.912-.608-.608-.912-1.356-.912-2.244 0-.888.304-1.636.912-2.244.608-.608 1.356-.912 2.244-.912.888 0 1.636.304 2.244.912.616.616.924 1.364.924 2.244 0 .88-.308 1.628-.924 2.244Zm-2.244-.108c.6 0 1.104-.204 1.512-.612.408-.408.612-.916.612-1.524s-.204-1.116-.612-1.524c-.408-.408-.912-.612-1.512-.612a2.04 2.04 0 0 0-1.5.612c-.408.408-.612.916-.612 1.524s.204 1.116.612 1.524a2.04 2.04 0 0 0 1.5.612Zm6.511-2.232 2.964 3.096h-1.296l-2.736-2.844V123h-1.044v-6h1.044v2.652l2.592-2.652h1.344l-2.868 2.904Zm-61.833 16.592V134h1.044v6h-1.044v-2.508h-3.108V140h-1.044v-6h1.044v2.496h3.108Zm7.601-1.464V134h1.044v6h-1.044v-1.032c-.512.792-1.268 1.188-2.268 1.188a2.863 2.863 0 0 1-2.148-.912c-.592-.616-.888-1.364-.888-2.244 0-.872.296-1.616.888-2.232.592-.616 1.308-.924 2.148-.924 1 0 1.756.396 2.268 1.188Zm-2.136 4.116c.608 0 1.116-.204 1.524-.612.408-.424.612-.936.612-1.536 0-.608-.204-1.116-.612-1.524-.408-.416-.916-.624-1.524-.624-.6 0-1.104.208-1.512.624-.408.408-.612.916-.612 1.524 0 .6.204 1.112.612 1.536.408.408.912.612 1.512.612Zm12.826.852h-5.424v-.912l2.964-3.024c.792-.792 1.188-1.472 1.188-2.04 0-.464-.144-.828-.432-1.092-.28-.272-.632-.408-1.056-.408-.792 0-1.368.376-1.728 1.128l-.936-.552c.256-.536.616-.944 1.08-1.224a2.92 2.92 0 0 1 1.572-.432 2.64 2.64 0 0 1 1.836.696c.52.472.78 1.096.78 1.872 0 .848-.5 1.772-1.5 2.772l-2.148 2.136h3.804V140Zm6.523-1.032c-.56.792-1.356 1.188-2.388 1.188-1.032 0-1.828-.396-2.388-1.188-.568-.8-.852-1.856-.852-3.168s.284-2.368.852-3.168c.56-.792 1.356-1.188 2.388-1.188 1.032 0 1.828.396 2.388 1.188.568.8.852 1.856.852 3.168s-.284 2.368-.852 3.168Zm-4.512-3.168c0 1.04.184 1.844.552 2.412.368.568.892.852 1.572.852s1.204-.284 1.572-.852c.376-.568.564-1.372.564-2.412 0-1.04-.188-1.844-.564-2.412-.368-.576-.892-.864-1.572-.864s-1.204.284-1.572.852c-.368.568-.552 1.376-.552 2.424Zm11.606 4.2h-5.424v-.912l2.964-3.024c.792-.792 1.188-1.472 1.188-2.04 0-.464-.144-.828-.432-1.092-.28-.272-.632-.408-1.056-.408-.792 0-1.368.376-1.728 1.128l-.936-.552c.256-.536.616-.944 1.08-1.224a2.92 2.92 0 0 1 1.572-.432 2.64 2.64 0 0 1 1.836.696c.52.472.78 1.096.78 1.872 0 .848-.5 1.772-1.5 2.772l-2.148 2.136h3.804V140Zm5.971-7.416-1.824 2.46c.656.12 1.184.4 1.584.84.4.44.6.984.6 1.632 0 .824-.28 1.468-.84 1.932-.568.472-1.248.708-2.04.708-.656 0-1.228-.148-1.716-.444a2.457 2.457 0 0 1-1.044-1.26l.936-.552c.248.776.856 1.164 1.824 1.164.528 0 .952-.136 1.272-.408.328-.28.492-.66.492-1.14 0-.48-.164-.86-.492-1.14-.32-.28-.744-.42-1.272-.42h-.288l-.444-.684 1.944-2.628h-3.732V131.6h5.04v.984Zm4.598 1.416h3.936v1.008h-2.892V140h-1.044v-6Zm9.681 5.244c-.608.608-1.356.912-2.244.912-.888 0-1.636-.304-2.244-.912-.608-.608-.912-1.356-.912-2.244 0-.888.304-1.636.912-2.244.608-.608 1.356-.912 2.244-.912.888 0 1.636.304 2.244.912.616.616.924 1.364.924 2.244 0 .88-.308 1.628-.924 2.244Zm-2.244-.108c.6 0 1.104-.204 1.512-.612.408-.408.612-.916.612-1.524s-.204-1.116-.612-1.524c-.408-.408-.912-.612-1.512-.612a2.04 2.04 0 0 0-1.5.612c-.408.408-.612.916-.612 1.524s.204 1.116.612 1.524a2.04 2.04 0 0 0 1.5.612ZM139.39 134v5.004h.827v2.604h-1.031V140h-4.5v1.608h-1.032v-2.604h.732c.384-.528.576-1.268.576-2.22V134h4.428Zm-3.816 5.004h2.784v-4.032h-2.364v1.812c0 .88-.14 1.62-.42 2.22Zm7.448-6.264 1.092-.06v.768l-1.092-.048.636.876-.684.408-.54-.984-.54.984-.672-.408.624-.876-1.08.048v-.768l1.08.06-.624-.888.672-.408.54.984.54-.984.684.408-.636.888Z"/></svg>
